X: 2313
T: O LASSIE ART THOU SLEEPING YET
N: aka "Muckin' o Geordie's Byre", "the Stone Barn", "the Scotch Lassie"
R: Scotch Jig.
%R: jig
B: James Kerr "Merry Melodies" v.2 p.34 #313
Z: 2016 John Chambers <jc:trillian.mit.edu>
M: 6/8
L: 1/8
K: D
ud |\
vA2vA AFA | vd2vd def | vg2ve uf2ud | efd uB2ud |\
vA2vA AFA | vd2vd def | afd ue2f | d3- d2 :|
|: uf |\
vg2vg gab | vf2vf fga | e2e ede | f2dB2d |\
A2A AFA | d2e f2g | afd e2f | d3- d2 :|
